!!!COM: Leoš [Leo Eugen] Janáček
!!!OTL: [T134_Jan-w26p35m58-67]
**kern	**kern	**dynam
!!pagebreak:original
*clefF4	*clefG2	*
*k[f#c#]	*k[f#c#]	*
*D:	*D:	*
*M3/8	*M3/8	*
=1	=1	=1
!	!LO:TX:t=[eighth-dot]=69	!
!	!LO:TX:b:t=[pp]	!
16r	(8.gL	.
16FFnLL	.	.
16Cn 16Fn 16A	.	.
16FF	8.e-XJ	.
16C 16F 16A	.	.
16FFJJ	.	.
=2	=2	=2
*^	*	*
4.E-X 4.A	16r	8.dL	p
.	16FFnLL	.	.
.	16Fn	.	.
.	16FF	16cnL	.
.	16F	16B	.
.	16FFJJ	16cJJ)	.
=3	=3	=3	=3
!	!	!LO:TX:b:i:t=sine p	!
!	!	!LO:TX:a:t=3	!
[4.B-X	16r	(8.b-XL	.
.	16FnLL	.	.
*v	*v	*^	*
.	.	16d-X 16fn	.
*^	*v	*v	*
.	16F	8.ccnJ	.
*v	*v	*^	*
.	.	16d- 16f	.
*^	*v	*v	*
.	16FJJ	.	.
=4	=4	=4	=4
4.B-X]	16r	8.dd-XL	< [
.	16FnLL	.	.
*v	*v	*^	*
.	.	16d-X 16fn	.
*^	*v	*v	*
.	16F	8.b-XJ	.
*v	*v	*^	*
.	.	16d- 16f	.
*^	*v	*v	*
.	16FJJ	.	.
=5	=5	=5	=5
*	*	*^	*
4.B-X	16r	8.aL	4.ryy	.
.	16FnLL	.	.	.
.	16c#X 16e	.	.	.
.	16F	16gL	.	.
!	!	!LO:TX:a:t=2        1	!	!
.	16c# 16e	16f#X	.	.
.	16FJJ	16gJJ)	.	.
!!linebreak:original
=6	=6	=6	=6	=6
!	!	!LO:TX:b:i:t=cresc.	!	!
[4.d-X	16r	(8.eeL	4.ryy	.
.	16B-XLL	.	.	.
*v	*v	*	*	*
.	.	.	.
*^	*	*	*
.	16B-	8.ff#XJ	.	.
*v	*v	*	*	*
.	.	.	.
*^	*	*	*
.	16B-JJ	.	.	.
=7	=7	=7	=7	=7
!	!	!LO:TX:a:t=1	!	!
4.d-_	16r	8.ggL	4.ryy	.
.	16B-XLL	.	.	.
*v	*v	*	*	*
.	.	.	.
*^	*	*	*
.	16B-	8.eeJ)	.	.
*v	*v	*	*	*
.	.	.	.
*^	*	*	*
.	16B-JJ	.	.	.
=8	=8	=8	=8	=8
4.d-]	16r	(32%3ff#LL	4.ryy	.
.	16B-XLL	.	.	.
.	.	32%3ggJ	.	.
*v	*v	*	*	*
.	.	.	.
*^	*	*	*
.	16e	32%3aaL	.	.
*v	*v	*	*	*
.	.	.	.
.	32%3ff#JJ)	.	.
*^	*	*	*
.	[16eJJ	.	.	.
*v	*v	*	*	*
=9	=9	=9	=9
!	!LO:TX:a:t=1	!	!
4.e]	(16ggLL	16r	.
.	16aa	16gLL	.
.	16cccnJ	16b-XJJ 16dd-X	.
.	64%3bb-XLL	16gLL	.
!	!LO:TX:a:t=1           4          1	!	!
.	64%3aa	.	.
.	.	16b- 16dd-	.
.	64%3bb-	.	.
.	.	[16gJJ	.
.	64%3cccJJJ	.	.
=10	=10	=10	=10
*	*	*^	*
!	!LO:TX:b:t=5	!	!	!
!	!LO:TX:b:t=3	!	!	!
!	!LO:TX:b:t=2	!	!	!
!	!LO:TX:b:t=1	!	!	!
!	!LO:TX:a:t=2	!	!	!
!	!LO:TX:a:t=1	!	!	!
!	!LO:TX:b:t=m.s.	!	!	!
!	!LO:TX:a:t=1     3    4	!	!	!
!	!LO:TX:a:t=2	!	!	!
8%3r	4.ddd-X;)	4g] 4b-X 4ee	8ryy	f <
.	.	.	8r;	.
.	.	(16qqcccn\LL	.	[
.	.	16qqddd-\	.	.
.	.	16qqeee-X\	.	.
.	.	16qqddd-\	.	.
.	.	16qqbb-X\	.	.
.	.	16qqgg\	.	.
.	.	16qqeen\	.	.
.	.	16qqdd-X\	.	.
.	.	16qqccn\	.	.
.	.	16qqb-\	.	.
.	.	16qqen\JJ	.	.
.	.	8r)yy	8ryy	.
*	*v	*v	*v	*
=	=	=
*-	*-	*-
!!!system-decoration: [({(s1,s2)})]
